icons/pause.svg

<?xml version="1.0" encoding="UTF-8" standalone="no"?>
<svg
   xmlns:dc="http://purl.org/dc/elements/1.1/"
   xmlns:cc="http://creativecommons.org/ns#"
   xmlns:rdf="http://www.w3.org/1999/02/22-rdf-syntax-ns#"
   xmlns:svg="http://www.w3.org/2000/svg"
   xmlns="http://www.w3.org/2000/svg"
   id="svg4"
   viewBox="0 0 50 50"
   version="1.1"
   width="50"
   height="50">
  <metadata
     id="metadata10">
    <rdf:RDF>
      <cc:Work
         rdf:about="">
        <dc:format>image/svg+xml</dc:format>
        <dc:type
           rdf:resource="http://purl.org/dc/dcmitype/StillImage" />
        <dc:title></dc:title>
      </cc:Work>
    </rdf:RDF>
  </metadata>
  <defs
     id="defs8" />
  <path
     id="path7"
     d="M 12.5 7.5 C 12.5 7.5 7.5 7.5 7.5 12.5 L 7.5 37.5 C 7.5 37.5 7.5 42.5 12.5 42.5 L 17.5 42.5 C 17.5 42.5 22.5 42.5 22.5 37.5 L 22.5 12.5 C 22.5 12.5 22.5 7.5 17.5 7.5 L 12.5 7.5 z M 32.5 7.5 C 27.5 7.5 27.5 12.5 27.5 12.5 L 27.5 37.5 C 27.5 42.5 32.5 42.5 32.5 42.5 L 37.5 42.5 C 42.5 42.5 42.5 37.5 42.5 37.5 L 42.5 12.5 C 42.5 7.5 37.5 7.5 37.5 7.5 L 32.5 7.5 z " />
</svg>

<?xml version="1.0" encoding="UTF-8"?>
<svg width="50" height="50" version="1.1" viewBox="0 0 50 50" xmlns="http://www.w3.org/2000/svg">
<path d="m12.5 7.5s-5 0-5 5v25s0 5 5 5h5s5 0 5-5v-25s0-5-5-5h-5zm20 0c-5 0-5 5-5 5v25c0 5 5 5 5 5h5c5 0 5-5 5-5v-25c0-5-5-5-5-5h-5z"/>
</svg>
